<?xml version="1.0" encoding="UTF-8"?>
<map version="1.10" tiledversion="1.12.2" orientation="orthogonal" renderorder="right-down" width="20" height="20" tilewidth="64" tileheight="64" infinite="0" nextlayerid="2" nextobjectid="1">
 <tileset firstgid="1" source="spritesheet-tiles-default.tsx"/>
 <layer id="1" name="Tile Layer 1" width="20" height="20">
  <data encoding="csv">
147,148,0,147,148,0,0,147,146,146,148,0,147,152,152,152,152,152,152,148,
141,142,0,141,143,143,143,143,143,143,142,0,141,0,0,0,0,0,0,142,
0,0,0,0,143,143,143,143,143,143,0,0,0,0,149,0,149,0,0,0,
0,0,0,0,143,150,143,143,150,143,0,0,0,0,0,0,0,0,0,0,
0,0,0,147,143,143,150,143,143,143,148,0,151,152,148,0,147,155,155,158,
0,0,0,144,143,143,143,150,143,143,145,0,0,0,145,0,144,0,0,0,
0,0,0,141,140,140,140,140,142,0,164,0,154,155,142,0,141,155,155,158,
0,0,0,0,0,0,0,0,0,0,0,0,0,0,0,0,0,0,0,0,
0,0,0,0,0,0,0,0,0,0,0,0,0,0,0,0,0,0,0,0,
0,0,0,0,0,0,0,0,0,0,0,0,0,0,0,0,0,0,0,0,
151,153,0,0,0,151,153,0,0,0,151,152,152,152,152,152,152,152,152,153,
0,0,0,0,0,0,0,0,0,0,0,0,0,0,0,0,0,0,0,0,
0,0,0,0,0,0,0,0,0,0,0,0,0,0,0,0,0,0,0,0,
0,156,155,155,155,157,0,0,0,0,0,0,0,0,151,152,153,0,0,0,
0,0,0,0,0,0,0,0,0,0,0,0,0,0,0,0,0,0,0,149,
0,0,0,0,0,0,0,139,0,0,151,152,153,0,0,0,0,0,0,0,
0,156,155,157,0,0,0,139,0,0,0,0,0,0,0,0,0,149,0,0,
0,0,0,0,0,0,0,139,139,0,0,0,0,0,0,0,0,0,0,0,
147,146,146,146,146,146,146,146,146,146,146,146,146,146,146,146,146,146,146,148,
141,140,140,140,140,140,140,140,140,140,140,140,140,140,140,140,140,140,140,142
</data>
 </layer>
</map>
